img/PP.svg

<svg width="25" height="8" viewBox="0 0 25 8" fill="none" xmlns="http://www.w3.org/2000/svg">
<path d="M3.93924 2.6376C3.83289 3.30841 3.32237 3.30841 2.83312 3.30841H2.54596L2.74804 2.05197C2.75867 1.97743 2.82249 1.92419 2.89694 1.92419H3.02457C3.36491 1.92419 3.68399 1.92419 3.84352 2.11585C3.94988 2.23298 3.98179 2.40335 3.93924 2.6376ZM3.72653 0.891357H1.85463C1.727 0.891357 1.62065 0.987187 1.59937 1.11496L0.844234 5.91712C0.833598 6.01295 0.897413 6.09813 0.993135 6.09813H1.88654C2.01417 6.09813 2.12053 6.0023 2.1418 5.87453L2.34388 4.5755C2.36515 4.44772 2.47151 4.35189 2.59914 4.35189H3.19474C4.42849 4.35189 5.14109 3.75562 5.3219 2.57371C5.40698 2.05197 5.32189 1.64735 5.08791 1.37051C4.82201 1.05107 4.35404 0.891357 3.72653 0.891357Z" fill="white"/>
<path d="M8.06597 4.36218C7.98089 4.87327 7.57673 5.214 7.05557 5.214C6.80031 5.214 6.5876 5.12882 6.45997 4.96911C6.33234 4.80939 6.27916 4.58578 6.3217 4.34089C6.40679 3.82979 6.81095 3.47842 7.32147 3.47842C7.57673 3.47842 7.77881 3.5636 7.91707 3.72331C8.05534 3.89368 8.10852 4.11728 8.06597 4.36218ZM9.31036 2.61594H8.41695C8.3425 2.61594 8.27869 2.66918 8.26805 2.74372L8.22551 2.99926L8.16169 2.90343C7.97025 2.62659 7.53418 2.53076 7.10875 2.53076C6.11962 2.53076 5.2794 3.27611 5.10922 4.33024C5.02414 4.85198 5.14113 5.35243 5.43893 5.7038C5.71546 6.02324 6.09835 6.16166 6.56633 6.16166C7.36401 6.16166 7.80008 5.65056 7.80008 5.65056L7.75754 5.89546C7.7469 5.99129 7.81071 6.07647 7.90644 6.07647H8.71476C8.84239 6.07647 8.94874 5.98065 8.97001 5.85287L9.44862 2.78631C9.48053 2.70113 9.40608 2.61594 9.31036 2.61594Z" fill="white"/>
<path d="M14.0858 2.61597H13.1818C13.0967 2.61597 13.0116 2.65856 12.969 2.73309L11.7247 4.56451L11.2035 2.80763C11.1716 2.70115 11.0652 2.62662 10.9589 2.62662H10.0655C9.95911 2.62662 9.88466 2.73309 9.91657 2.82892L10.9057 5.73577L9.96975 7.0561C9.8953 7.16258 9.96975 7.301 10.0974 7.301H10.9908C11.0759 7.301 11.161 7.25841 11.2035 7.19452L14.2134 2.86087C14.2772 2.75439 14.2028 2.61597 14.0858 2.61597Z" fill="white"/>
<path d="M17.2765 2.63711C17.1702 3.30792 16.6597 3.30792 16.1704 3.30792H15.8939L16.096 2.05148C16.1066 1.97695 16.1704 1.92371 16.2449 1.92371H16.3725C16.7128 1.92371 17.0319 1.92371 17.1915 2.11537C17.2765 2.23249 17.3084 2.40286 17.2765 2.63711ZM17.0532 0.890869H15.1813C15.0537 0.890869 14.9473 0.986699 14.926 1.11447L14.1709 5.91663C14.1603 6.01246 14.2241 6.09765 14.3198 6.09765H15.277C15.3621 6.09765 15.4472 6.03376 15.4578 5.94858L15.6705 4.58566C15.6918 4.45788 15.7982 4.36205 15.9258 4.36205H16.5214C17.7551 4.36205 18.4677 3.76578 18.6486 2.58387C18.7336 2.06213 18.6486 1.65751 18.4146 1.38067C18.1593 1.05059 17.6807 0.890869 17.0532 0.890869Z" fill="white"/>
<path d="M21.3926 4.36218C21.3075 4.87327 20.9033 5.214 20.3822 5.214C20.1269 5.214 19.9142 5.12882 19.7866 4.96911C19.6589 4.80939 19.6057 4.58578 19.6483 4.34089C19.7334 3.82979 20.1375 3.47842 20.6481 3.47842C20.9033 3.47842 21.1054 3.5636 21.2437 3.72331C21.3819 3.89368 21.4351 4.11728 21.3926 4.36218ZM22.6476 2.61594H21.7542C21.6797 2.61594 21.6159 2.66918 21.6053 2.74372L21.5627 2.99926L21.4989 2.90343C21.3075 2.62659 20.8714 2.53076 20.446 2.53076C19.4568 2.53076 18.6166 3.27611 18.4464 4.33024C18.3614 4.85198 18.4784 5.35243 18.7762 5.7038C19.0527 6.02324 19.4356 6.16166 19.9035 6.16166C20.7012 6.16166 21.1373 5.65056 21.1373 5.65056L21.0948 5.89546C21.0841 5.99129 21.1479 6.07647 21.2437 6.07647H22.052C22.1796 6.07647 22.286 5.98065 22.3072 5.85287L22.7965 2.78631C22.8178 2.70113 22.7433 2.61594 22.6476 2.61594Z" fill="white"/>
<path d="M23.7005 1.01879L22.9347 5.90613C22.9241 6.00196 22.9879 6.08714 23.0836 6.08714H23.8601C23.9877 6.08714 24.094 5.99131 24.1153 5.86354L24.8705 1.06138C24.8811 0.965553 24.8173 0.880371 24.7216 0.880371H23.8601C23.775 0.891019 23.7112 0.944257 23.7005 1.01879Z" fill="white"/>
</svg>

<svg width="25" height="8" fill="none" xmlns="http://www.w3.org/2000/svg"><path d="M3.94 2.638c-.107.67-.618.67-1.107.67h-.287l.202-1.256a.15.15 0 01.149-.128h.128c.34 0 .659 0 .819.192.106.117.138.287.095.522zM3.726.89H1.855a.262.262 0 00-.256.224L.844 5.917c-.01.096.053.181.15.181h.893a.262.262 0 00.255-.223l.202-1.3a.262.262 0 01.255-.223h.596c1.233 0 1.946-.596 2.127-1.778.085-.522 0-.927-.234-1.203-.266-.32-.734-.48-1.361-.48zM8.066 4.362a.993.993 0 01-1.01.852c-.256 0-.468-.085-.596-.245a.78.78 0 01-.138-.628c.085-.511.489-.863 1-.863.255 0 .457.086.595.245.138.17.192.394.149.64zM9.31 2.616h-.893a.15.15 0 00-.149.128l-.042.255-.064-.096c-.192-.276-.628-.372-1.053-.372-.99 0-1.83.745-2 1.8-.085.521.032 1.021.33 1.373.276.32.66.458 1.127.458.798 0 1.234-.511 1.234-.511l-.042.244c-.011.096.053.181.148.181h.809a.262.262 0 00.255-.223l.479-3.067c.032-.085-.043-.17-.139-.17zM14.086 2.616h-.904a.245.245 0 00-.213.117l-1.244 1.832-.521-1.757a.262.262 0 00-.245-.181h-.893a.157.157 0 00-.15.202l.99 2.907-.936 1.32a.154.154 0 00.127.245h.894c.085 0 .17-.043.213-.106l3.01-4.334c.063-.107-.011-.245-.128-.245zM17.276 2.637c-.106.67-.616.67-1.106.67h-.276l.202-1.256a.15.15 0 01.149-.127h.127c.34 0 .66 0 .82.191.084.117.116.288.084.522zM17.053.891h-1.872a.262.262 0 00-.255.223l-.755 4.803c-.01.095.053.18.149.18h.957c.085 0 .17-.063.18-.148l.213-1.363a.262.262 0 01.256-.224h.595c1.234 0 1.947-.596 2.128-1.778.085-.522 0-.926-.234-1.203-.256-.33-.734-.49-1.362-.49zM21.393 4.362a.993.993 0 01-1.01.852c-.256 0-.469-.085-.596-.245a.78.78 0 01-.139-.628c.085-.511.49-.863 1-.863.255 0 .457.086.596.245.138.17.191.394.149.64zm1.255-1.746h-.894a.15.15 0 00-.149.128l-.042.255-.064-.096c-.191-.276-.628-.372-1.053-.372-.99 0-1.83.745-2 1.8-.085.521.032 1.021.33 1.373.277.32.66.458 1.128.458.797 0 1.233-.511 1.233-.511l-.042.244c-.01.096.053.181.149.181h.808a.262.262 0 00.255-.223l.49-3.067c.02-.085-.054-.17-.15-.17zM23.7 1.019l-.765 4.887c-.01.096.053.181.149.181h.776a.262.262 0 00.255-.223l.756-4.803c.01-.095-.054-.18-.15-.18h-.86c-.086.01-.15.063-.16.138z" fill="#fff"/></svg>
